(G-CODE GENERATED BY FLATCAM v8.994 - www.flatcam.org - Version Date: 2020/11/7)

(Name: Drill_PTH_Through.DRL_edit_cnc)
(Type: G-code from Geometry)
(Units: MM)

(Created on Tuesday, 07 April 2026 at 22:51)

(This preprocessor is the default preprocessor used by FlatCAM.)
(It is made to work with MACH3 compatible motion controllers.)


(TOOLS DIAMETER: )
(Tool: 1 -> Dia: 1.1)

(FEEDRATE Z: )
(Tool: 1 -> Feedrate: 25.0)

(FEEDRATE RAPIDS: )
(Tool: 1 -> Feedrate Rapids: 1500.0)

(Z_CUT: )
(Tool: 1 -> Z_Cut: -2.5)

(Tools Offset: )
(Tool: 1 -> Offset Z: 0.0)

(Z_MOVE: )
(Tool: 1 -> Z_Move: 2.0)

(Z Toolchange: 15 mm)
(X,Y Toolchange: 0.0000, 0.0000 mm)
(Z Start: None mm)
(Z End: 5.0 mm)
(X,Y End: 0.0000, 0.0000 mm)
(Steps per circle: 64)
(Preprocessor Excellon: default)

(X range:  -69.2425 ...  -49.0865  mm)
(Y range:  -26.0125 ...   26.1205  mm)

(Spindle Speed: 10000 RPM)
G21
G90
G94

G01 F25.00

M5
G00 Z15.0000
T1
G00 X0.0000 Y0.0000                
(MSG, Change to Tool Dia = 1.1000 ||| Total drills for tool T1 = 31)
G00 Z15.0000

G01 F25.00
M03 S10000
G00 X-64.8145 Y-25.4625
G01 Z-2.5000
G01 Z0
G00 Z2.0000
G00 X-62.2745 Y-25.4625
G01 Z-2.5000
G01 Z0
G00 Z2.0000
G00 X-59.7345 Y-25.4625
G01 Z-2.5000
G01 Z0
G00 Z2.0000
G00 X-57.1945 Y-25.4625
G01 Z-2.5000
G01 Z0
G00 Z2.0000
G00 X-54.6545 Y-25.4625
G01 Z-2.5000
G01 Z0
G00 Z2.0000
G00 X-52.1145 Y-25.4625
G01 Z-2.5000
G01 Z0
G00 Z2.0000
G00 X-49.6365 Y-25.4625
G01 Z-2.5000
G01 Z0
G00 Z2.0000
G00 X-49.7015 Y-20.4975
G01 Z-2.5000
G01 Z0
G00 Z2.0000
G00 X-54.7015 Y-20.4775
G01 Z-2.5000
G01 Z0
G00 Z2.0000
G00 X-54.7015 Y-8.5365
G01 Z-2.5000
G01 Z0
G00 Z2.0000
G00 X-49.7015 Y-8.4255
G01 Z-2.5000
G01 Z0
G00 Z2.0000
G00 X-49.7015 Y-3.4445
G01 Z-2.5000
G01 Z0
G00 Z2.0000
G00 X-54.7015 Y-3.5245
G01 Z-2.5000
G01 Z0
G00 Z2.0000
G00 X-49.7015 Y8.5525
G01 Z-2.5000
G01 Z0
G00 Z2.0000
G00 X-54.7015 Y8.4875
G01 Z-2.5000
G01 Z0
G00 Z2.0000
G00 X-54.7015 Y13.6205
G01 Z-2.5000
G01 Z0
G00 Z2.0000
G00 X-49.7015 Y13.5735
G01 Z-2.5000
G01 Z0
G00 Z2.0000
G00 X-49.7015 Y25.5705
G01 Z-2.5000
G01 Z0
G00 Z2.0000
G00 X-54.7015 Y25.4465
G01 Z-2.5000
G01 Z0
G00 Z2.0000
G00 X-63.7095 Y25.5055
G01 Z-2.5000
G01 Z0
G00 Z2.0000
G00 X-68.6925 Y25.4465
G01 Z-2.5000
G01 Z0
G00 Z2.0000
G00 X-68.6925 Y13.6205
G01 Z-2.5000
G01 Z0
G00 Z2.0000
G00 X-63.7095 Y13.4345
G01 Z-2.5000
G01 Z0
G00 Z2.0000
G00 X-63.7095 Y8.4965
G01 Z-2.5000
G01 Z0
G00 Z2.0000
G00 X-68.6925 Y8.5645
G01 Z-2.5000
G01 Z0
G00 Z2.0000
G00 X-68.6925 Y-3.4445
G01 Z-2.5000
G01 Z0
G00 Z2.0000
G00 X-63.7095 Y-3.5715
G01 Z-2.5000
G01 Z0
G00 Z2.0000
G00 X-63.7095 Y-8.5215
G01 Z-2.5000
G01 Z0
G00 Z2.0000
G00 X-68.6925 Y-8.4625
G01 Z-2.5000
G01 Z0
G00 Z2.0000
G00 X-68.6925 Y-20.4775
G01 Z-2.5000
G01 Z0
G00 Z2.0000
G00 X-63.7095 Y-20.4625
G01 Z-2.5000
G01 Z0
G00 Z2.0000
M05
G00 Z5.00
G00 X0.0 Y0.0



; --- Fin de segmento ---

(G-CODE GENERATED BY FLATCAM v8.994 - www.flatcam.org - Version Date: 2020/11/7)

(Name: Drill_PTH_Through.DRL_edit_4_cnc)
(Type: G-code from Geometry)
(Units: MM)

(Created on Tuesday, 07 April 2026 at 23:02)

(This preprocessor is the default preprocessor used by FlatCAM.)
(It is made to work with MACH3 compatible motion controllers.)


(TOOLS DIAMETER: )
(Tool: 1 -> Dia: 1.1)

(FEEDRATE Z: )
(Tool: 1 -> Feedrate: 25.0)

(FEEDRATE RAPIDS: )
(Tool: 1 -> Feedrate Rapids: 1500.0)

(Z_CUT: )
(Tool: 1 -> Z_Cut: -2.5)

(Tools Offset: )
(Tool: 1 -> Offset Z: 0.0)

(Z_MOVE: )
(Tool: 1 -> Z_Move: 2.0)

(Z Toolchange: 15.0 mm)
(X,Y Toolchange: 0.0000, 0.0000 mm)
(Z Start: None mm)
(Z End: 5.0 mm)
(X,Y End: 0.0000, 0.0000 mm)
(Steps per circle: 64)
(Preprocessor Excellon: default)

(X range:   48.6825 ...   68.8385  mm)
(Y range:  -26.0125 ...   26.1205  mm)

(Spindle Speed: 10000 RPM)
G21
G90
G94

G01 F25.00

M5
G00 Z15.0000
T1
G00 X0.0000 Y0.0000                
(MSG, Change to Tool Dia = 1.1000 ||| Total drills for tool T1 = 31)
G00 Z15.0000

G01 F25.00
M03 S10000
G00 X53.1105 Y-25.4625
G01 Z-2.5000
G01 Z0
G00 Z2.0000
G00 X55.6505 Y-25.4625
G01 Z-2.5000
G01 Z0
G00 Z2.0000
G00 X58.1905 Y-25.4625
G01 Z-2.5000
G01 Z0
G00 Z2.0000
G00 X60.7305 Y-25.4625
G01 Z-2.5000
G01 Z0
G00 Z2.0000
G00 X63.2705 Y-25.4625
G01 Z-2.5000
G01 Z0
G00 Z2.0000
G00 X65.8105 Y-25.4625
G01 Z-2.5000
G01 Z0
G00 Z2.0000
G00 X68.2885 Y-25.4625
G01 Z-2.5000
G01 Z0
G00 Z2.0000
G00 X68.2235 Y-20.4975
G01 Z-2.5000
G01 Z0
G00 Z2.0000
G00 X63.2235 Y-20.4775
G01 Z-2.5000
G01 Z0
G00 Z2.0000
G00 X63.2235 Y-8.5365
G01 Z-2.5000
G01 Z0
G00 Z2.0000
G00 X68.2235 Y-8.4255
G01 Z-2.5000
G01 Z0
G00 Z2.0000
G00 X68.2235 Y-3.4445
G01 Z-2.5000
G01 Z0
G00 Z2.0000
G00 X63.2235 Y-3.5245
G01 Z-2.5000
G01 Z0
G00 Z2.0000
G00 X68.2235 Y8.5525
G01 Z-2.5000
G01 Z0
G00 Z2.0000
G00 X63.2235 Y8.4875
G01 Z-2.5000
G01 Z0
G00 Z2.0000
G00 X63.2235 Y13.6205
G01 Z-2.5000
G01 Z0
G00 Z2.0000
G00 X68.2235 Y13.5735
G01 Z-2.5000
G01 Z0
G00 Z2.0000
G00 X68.2235 Y25.5705
G01 Z-2.5000
G01 Z0
G00 Z2.0000
G00 X63.2235 Y25.4465
G01 Z-2.5000
G01 Z0
G00 Z2.0000
G00 X54.2155 Y25.5055
G01 Z-2.5000
G01 Z0
G00 Z2.0000
G00 X49.2325 Y25.4465
G01 Z-2.5000
G01 Z0
G00 Z2.0000
G00 X49.2325 Y13.6205
G01 Z-2.5000
G01 Z0
G00 Z2.0000
G00 X54.2155 Y13.4345
G01 Z-2.5000
G01 Z0
G00 Z2.0000
G00 X54.2155 Y8.4965
G01 Z-2.5000
G01 Z0
G00 Z2.0000
G00 X49.2325 Y8.5645
G01 Z-2.5000
G01 Z0
G00 Z2.0000
G00 X49.2325 Y-3.4445
G01 Z-2.5000
G01 Z0
G00 Z2.0000
G00 X54.2155 Y-3.5715
G01 Z-2.5000
G01 Z0
G00 Z2.0000
G00 X54.2155 Y-8.5215
G01 Z-2.5000
G01 Z0
G00 Z2.0000
G00 X49.2325 Y-8.4625
G01 Z-2.5000
G01 Z0
G00 Z2.0000
G00 X49.2325 Y-20.4775
G01 Z-2.5000
G01 Z0
G00 Z2.0000
G00 X54.2155 Y-20.4625
G01 Z-2.5000
G01 Z0
G00 Z2.0000
M05
G00 Z5.00
G00 X0.0 Y0.0



; --- Fin de segmento ---

(G-CODE GENERATED BY FLATCAM v8.994 - www.flatcam.org - Version Date: 2020/11/7)

(Name: Drill_PTH_Through.DRL_edit_3_cnc)
(Type: G-code from Geometry)
(Units: MM)

(Created on Tuesday, 07 April 2026 at 23:02)

(This preprocessor is the default preprocessor used by FlatCAM.)
(It is made to work with MACH3 compatible motion controllers.)


(TOOLS DIAMETER: )
(Tool: 1 -> Dia: 1.1)

(FEEDRATE Z: )
(Tool: 1 -> Feedrate: 25.0)

(FEEDRATE RAPIDS: )
(Tool: 1 -> Feedrate Rapids: 1500.0)

(Z_CUT: )
(Tool: 1 -> Z_Cut: -2.5)

(Tools Offset: )
(Tool: 1 -> Offset Z: 0.0)

(Z_MOVE: )
(Tool: 1 -> Z_Move: 2.0)

(Z Toolchange: 15 mm)
(X,Y Toolchange: 0.0000, 0.0000 mm)
(Z Start: None mm)
(Z End: 5.0 mm)
(X,Y End: 0.0000, 0.0000 mm)
(Steps per circle: 64)
(Preprocessor Excellon: default)

(X range:   19.2075 ...   39.3635  mm)
(Y range:  -26.0125 ...   26.1205  mm)

(Spindle Speed: 10000 RPM)
G21
G90
G94

G01 F25.00

M5
G00 Z15.0000
T1
G00 X0.0000 Y0.0000                
(MSG, Change to Tool Dia = 1.1000 ||| Total drills for tool T1 = 31)
G00 Z15.0000

G01 F25.00
M03 S10000
G00 X23.6355 Y-25.4625
G01 Z-2.5000
G01 Z0
G00 Z2.0000
G00 X26.1755 Y-25.4625
G01 Z-2.5000
G01 Z0
G00 Z2.0000
G00 X28.7155 Y-25.4625
G01 Z-2.5000
G01 Z0
G00 Z2.0000
G00 X31.2555 Y-25.4625
G01 Z-2.5000
G01 Z0
G00 Z2.0000
G00 X33.7955 Y-25.4625
G01 Z-2.5000
G01 Z0
G00 Z2.0000
G00 X36.3355 Y-25.4625
G01 Z-2.5000
G01 Z0
G00 Z2.0000
G00 X38.8135 Y-25.4625
G01 Z-2.5000
G01 Z0
G00 Z2.0000
G00 X38.7485 Y-20.4975
G01 Z-2.5000
G01 Z0
G00 Z2.0000
G00 X33.7485 Y-20.4775
G01 Z-2.5000
G01 Z0
G00 Z2.0000
G00 X33.7485 Y-8.5365
G01 Z-2.5000
G01 Z0
G00 Z2.0000
G00 X38.7485 Y-8.4255
G01 Z-2.5000
G01 Z0
G00 Z2.0000
G00 X38.7485 Y-3.4445
G01 Z-2.5000
G01 Z0
G00 Z2.0000
G00 X33.7485 Y-3.5245
G01 Z-2.5000
G01 Z0
G00 Z2.0000
G00 X38.7485 Y8.5525
G01 Z-2.5000
G01 Z0
G00 Z2.0000
G00 X33.7485 Y8.4875
G01 Z-2.5000
G01 Z0
G00 Z2.0000
G00 X33.7485 Y13.6205
G01 Z-2.5000
G01 Z0
G00 Z2.0000
G00 X38.7485 Y13.5735
G01 Z-2.5000
G01 Z0
G00 Z2.0000
G00 X38.7485 Y25.5705
G01 Z-2.5000
G01 Z0
G00 Z2.0000
G00 X33.7485 Y25.4465
G01 Z-2.5000
G01 Z0
G00 Z2.0000
G00 X24.7405 Y25.5055
G01 Z-2.5000
G01 Z0
G00 Z2.0000
G00 X19.7575 Y25.4465
G01 Z-2.5000
G01 Z0
G00 Z2.0000
G00 X19.7575 Y13.6205
G01 Z-2.5000
G01 Z0
G00 Z2.0000
G00 X24.7405 Y13.4345
G01 Z-2.5000
G01 Z0
G00 Z2.0000
G00 X24.7405 Y8.4965
G01 Z-2.5000
G01 Z0
G00 Z2.0000
G00 X19.7575 Y8.5645
G01 Z-2.5000
G01 Z0
G00 Z2.0000
G00 X19.7575 Y-3.4445
G01 Z-2.5000
G01 Z0
G00 Z2.0000
G00 X24.7405 Y-3.5715
G01 Z-2.5000
G01 Z0
G00 Z2.0000
G00 X24.7405 Y-8.5215
G01 Z-2.5000
G01 Z0
G00 Z2.0000
G00 X19.7575 Y-8.4625
G01 Z-2.5000
G01 Z0
G00 Z2.0000
G00 X19.7575 Y-20.4775
G01 Z-2.5000
G01 Z0
G00 Z2.0000
G00 X24.7405 Y-20.4625
G01 Z-2.5000
G01 Z0
G00 Z2.0000
M05
G00 Z5.00
G00 X0.0 Y0.0



; --- Fin de segmento ---

(G-CODE GENERATED BY FLATCAM v8.994 - www.flatcam.org - Version Date: 2020/11/7)

(Name: Drill_PTH_Through.DRL_edit_2_cnc)
(Type: G-code from Geometry)
(Units: MM)

(Created on Tuesday, 07 April 2026 at 23:02)

(This preprocessor is the default preprocessor used by FlatCAM.)
(It is made to work with MACH3 compatible motion controllers.)


(TOOLS DIAMETER: )
(Tool: 1 -> Dia: 1.1)

(FEEDRATE Z: )
(Tool: 1 -> Feedrate: 25.0)

(FEEDRATE RAPIDS: )
(Tool: 1 -> Feedrate Rapids: 1500.0)

(Z_CUT: )
(Tool: 1 -> Z_Cut: -2.5)

(Tools Offset: )
(Tool: 1 -> Offset Z: 0.0)

(Z_MOVE: )
(Tool: 1 -> Z_Move: 2.0)

(Z Toolchange: 15 mm)
(X,Y Toolchange: 0.0000, 0.0000 mm)
(Z Start: None mm)
(Z End: 5.0 mm)
(X,Y End: 0.0000, 0.0000 mm)
(Steps per circle: 64)
(Preprocessor Excellon: default)

(X range:  -10.2675 ...    9.8885  mm)
(Y range:  -26.0125 ...   26.1205  mm)

(Spindle Speed: 10000 RPM)
G21
G90
G94

G01 F25.00

M5
G00 Z15.0000
T1
G00 X0.0000 Y0.0000                
(MSG, Change to Tool Dia = 1.1000 ||| Total drills for tool T1 = 31)
G00 Z15.0000

G01 F25.00
M03 S10000
G00 X-5.8395 Y-25.4625
G01 Z-2.5000
G01 Z0
G00 Z2.0000
G00 X-3.2995 Y-25.4625
G01 Z-2.5000
G01 Z0
G00 Z2.0000
G00 X-0.7595 Y-25.4625
G01 Z-2.5000
G01 Z0
G00 Z2.0000
G00 X1.7805 Y-25.4625
G01 Z-2.5000
G01 Z0
G00 Z2.0000
G00 X4.3205 Y-25.4625
G01 Z-2.5000
G01 Z0
G00 Z2.0000
G00 X6.8605 Y-25.4625
G01 Z-2.5000
G01 Z0
G00 Z2.0000
G00 X9.3385 Y-25.4625
G01 Z-2.5000
G01 Z0
G00 Z2.0000
G00 X9.2735 Y-20.4975
G01 Z-2.5000
G01 Z0
G00 Z2.0000
G00 X4.2735 Y-20.4775
G01 Z-2.5000
G01 Z0
G00 Z2.0000
G00 X4.2735 Y-8.5365
G01 Z-2.5000
G01 Z0
G00 Z2.0000
G00 X9.2735 Y-8.4255
G01 Z-2.5000
G01 Z0
G00 Z2.0000
G00 X9.2735 Y-3.4445
G01 Z-2.5000
G01 Z0
G00 Z2.0000
G00 X4.2735 Y-3.5245
G01 Z-2.5000
G01 Z0
G00 Z2.0000
G00 X9.2735 Y8.5525
G01 Z-2.5000
G01 Z0
G00 Z2.0000
G00 X4.2735 Y8.4875
G01 Z-2.5000
G01 Z0
G00 Z2.0000
G00 X4.2735 Y13.6205
G01 Z-2.5000
G01 Z0
G00 Z2.0000
G00 X9.2735 Y13.5735
G01 Z-2.5000
G01 Z0
G00 Z2.0000
G00 X9.2735 Y25.5705
G01 Z-2.5000
G01 Z0
G00 Z2.0000
G00 X4.2735 Y25.4465
G01 Z-2.5000
G01 Z0
G00 Z2.0000
G00 X-4.7345 Y25.5055
G01 Z-2.5000
G01 Z0
G00 Z2.0000
G00 X-9.7175 Y25.4465
G01 Z-2.5000
G01 Z0
G00 Z2.0000
G00 X-9.7175 Y13.6205
G01 Z-2.5000
G01 Z0
G00 Z2.0000
G00 X-4.7345 Y13.4345
G01 Z-2.5000
G01 Z0
G00 Z2.0000
G00 X-4.7345 Y8.4965
G01 Z-2.5000
G01 Z0
G00 Z2.0000
G00 X-9.7175 Y8.5645
G01 Z-2.5000
G01 Z0
G00 Z2.0000
G00 X-9.7175 Y-3.4445
G01 Z-2.5000
G01 Z0
G00 Z2.0000
G00 X-4.7345 Y-3.5715
G01 Z-2.5000
G01 Z0
G00 Z2.0000
G00 X-4.7345 Y-8.5215
G01 Z-2.5000
G01 Z0
G00 Z2.0000
G00 X-9.7175 Y-8.4625
G01 Z-2.5000
G01 Z0
G00 Z2.0000
G00 X-9.7175 Y-20.4775
G01 Z-2.5000
G01 Z0
G00 Z2.0000
G00 X-4.7345 Y-20.4625
G01 Z-2.5000
G01 Z0
G00 Z2.0000
M05
G00 Z5.00
G00 X0.0 Y0.0



; --- Fin de segmento ---

(G-CODE GENERATED BY FLATCAM v8.994 - www.flatcam.org - Version Date: 2020/11/7)

(Name: Drill_PTH_Through.DRL_edit_1_cnc)
(Type: G-code from Geometry)
(Units: MM)

(Created on Tuesday, 07 April 2026 at 23:01)

(This preprocessor is the default preprocessor used by FlatCAM.)
(It is made to work with MACH3 compatible motion controllers.)


(TOOLS DIAMETER: )
(Tool: 1 -> Dia: 1.1)

(FEEDRATE Z: )
(Tool: 1 -> Feedrate: 25.0)

(FEEDRATE RAPIDS: )
(Tool: 1 -> Feedrate Rapids: 1500.0)

(Z_CUT: )
(Tool: 1 -> Z_Cut: -2.5)

(Tools Offset: )
(Tool: 1 -> Offset Z: 0.0)

(Z_MOVE: )
(Tool: 1 -> Z_Move: 2.0)

(Z Toolchange: 15 mm)
(X,Y Toolchange: 0.0000, 0.0000 mm)
(Z Start: None mm)
(Z End: 5.0 mm)
(X,Y End: 0.0000, 0.0000 mm)
(Steps per circle: 64)
(Preprocessor Excellon: default)

(X range:  -39.7425 ...  -19.5865  mm)
(Y range:  -26.0125 ...   26.1205  mm)

(Spindle Speed: 10000 RPM)
G21
G90
G94

G01 F25.00

M5
G00 Z15.0000
T1
G00 X0.0000 Y0.0000                
(MSG, Change to Tool Dia = 1.1000 ||| Total drills for tool T1 = 31)
G00 Z15.0000

G01 F25.00
M03 S10000
G00 X-35.3145 Y-25.4625
G01 Z-2.5000
G01 Z0
G00 Z2.0000
G00 X-32.7745 Y-25.4625
G01 Z-2.5000
G01 Z0
G00 Z2.0000
G00 X-30.2345 Y-25.4625
G01 Z-2.5000
G01 Z0
G00 Z2.0000
G00 X-27.6945 Y-25.4625
G01 Z-2.5000
G01 Z0
G00 Z2.0000
G00 X-25.1545 Y-25.4625
G01 Z-2.5000
G01 Z0
G00 Z2.0000
G00 X-22.6145 Y-25.4625
G01 Z-2.5000
G01 Z0
G00 Z2.0000
G00 X-20.1365 Y-25.4625
G01 Z-2.5000
G01 Z0
G00 Z2.0000
G00 X-20.2015 Y-20.4975
G01 Z-2.5000
G01 Z0
G00 Z2.0000
G00 X-25.2015 Y-20.4775
G01 Z-2.5000
G01 Z0
G00 Z2.0000
G00 X-25.2015 Y-8.5365
G01 Z-2.5000
G01 Z0
G00 Z2.0000
G00 X-20.2015 Y-8.4255
G01 Z-2.5000
G01 Z0
G00 Z2.0000
G00 X-20.2015 Y-3.4445
G01 Z-2.5000
G01 Z0
G00 Z2.0000
G00 X-25.2015 Y-3.5245
G01 Z-2.5000
G01 Z0
G00 Z2.0000
G00 X-20.2015 Y8.5525
G01 Z-2.5000
G01 Z0
G00 Z2.0000
G00 X-25.2015 Y8.4875
G01 Z-2.5000
G01 Z0
G00 Z2.0000
G00 X-25.2015 Y13.6205
G01 Z-2.5000
G01 Z0
G00 Z2.0000
G00 X-20.2015 Y13.5735
G01 Z-2.5000
G01 Z0
G00 Z2.0000
G00 X-20.2015 Y25.5705
G01 Z-2.5000
G01 Z0
G00 Z2.0000
G00 X-25.2015 Y25.4465
G01 Z-2.5000
G01 Z0
G00 Z2.0000
G00 X-34.2095 Y25.5055
G01 Z-2.5000
G01 Z0
G00 Z2.0000
G00 X-39.1925 Y25.4465
G01 Z-2.5000
G01 Z0
G00 Z2.0000
G00 X-39.1925 Y13.6205
G01 Z-2.5000
G01 Z0
G00 Z2.0000
G00 X-34.2095 Y13.4345
G01 Z-2.5000
G01 Z0
G00 Z2.0000
G00 X-34.2095 Y8.4965
G01 Z-2.5000
G01 Z0
G00 Z2.0000
G00 X-39.1925 Y8.5645
G01 Z-2.5000
G01 Z0
G00 Z2.0000
G00 X-39.1925 Y-3.4445
G01 Z-2.5000
G01 Z0
G00 Z2.0000
G00 X-34.2095 Y-3.5715
G01 Z-2.5000
G01 Z0
G00 Z2.0000
G00 X-34.2095 Y-8.5215
G01 Z-2.5000
G01 Z0
G00 Z2.0000
G00 X-39.1925 Y-8.4625
G01 Z-2.5000
G01 Z0
G00 Z2.0000
G00 X-39.1925 Y-20.4775
G01 Z-2.5000
G01 Z0
G00 Z2.0000
G00 X-34.2095 Y-20.4625
G01 Z-2.5000
G01 Z0
G00 Z2.0000
M05
G00 Z5.00
G00 X0.0 Y0.0



; --- Fin de segmento ---

