(G-CODE GENERATED BY FLATCAM v8.994 - www.flatcam.org - Version Date: 2020/11/7)

(Name: Drill_PTH_Through.DRL_edit_3_cnc)
(Type: G-code from Geometry)
(Units: MM)

(Created on Tuesday, 07 April 2026 at 23:02)

(This preprocessor is the default preprocessor used by FlatCAM.)
(It is made to work with MACH3 compatible motion controllers.)


(TOOLS DIAMETER: )
(Tool: 1 -> Dia: 1.1)

(FEEDRATE Z: )
(Tool: 1 -> Feedrate: 25.0)

(FEEDRATE RAPIDS: )
(Tool: 1 -> Feedrate Rapids: 1500.0)

(Z_CUT: )
(Tool: 1 -> Z_Cut: -2.5)

(Tools Offset: )
(Tool: 1 -> Offset Z: 0.0)

(Z_MOVE: )
(Tool: 1 -> Z_Move: 2.0)

(Z Toolchange: 15 mm)
(X,Y Toolchange: 0.0000, 0.0000 mm)
(Z Start: None mm)
(Z End: 5.0 mm)
(X,Y End: 0.0000, 0.0000 mm)
(Steps per circle: 64)
(Preprocessor Excellon: default)

(X range:   19.2075 ...   39.3635  mm)
(Y range:  -26.0125 ...   26.1205  mm)

(Spindle Speed: 10000 RPM)
G21
G90
G94

G01 F25.00

M5
G00 Z15.0000
T1
G00 X0.0000 Y0.0000                
M6
(MSG, Change to Tool Dia = 1.1000 ||| Total drills for tool T1 = 31)
M0
G00 Z15.0000

G01 F25.00
M03 S10000
G00 X23.6355 Y-25.4625
G01 Z-2.5000
G01 Z0
G00 Z2.0000
G00 X26.1755 Y-25.4625
G01 Z-2.5000
G01 Z0
G00 Z2.0000
G00 X28.7155 Y-25.4625
G01 Z-2.5000
G01 Z0
G00 Z2.0000
G00 X31.2555 Y-25.4625
G01 Z-2.5000
G01 Z0
G00 Z2.0000
G00 X33.7955 Y-25.4625
G01 Z-2.5000
G01 Z0
G00 Z2.0000
G00 X36.3355 Y-25.4625
G01 Z-2.5000
G01 Z0
G00 Z2.0000
G00 X38.8135 Y-25.4625
G01 Z-2.5000
G01 Z0
G00 Z2.0000
G00 X38.7485 Y-20.4975
G01 Z-2.5000
G01 Z0
G00 Z2.0000
G00 X33.7485 Y-20.4775
G01 Z-2.5000
G01 Z0
G00 Z2.0000
G00 X33.7485 Y-8.5365
G01 Z-2.5000
G01 Z0
G00 Z2.0000
G00 X38.7485 Y-8.4255
G01 Z-2.5000
G01 Z0
G00 Z2.0000
G00 X38.7485 Y-3.4445
G01 Z-2.5000
G01 Z0
G00 Z2.0000
G00 X33.7485 Y-3.5245
G01 Z-2.5000
G01 Z0
G00 Z2.0000
G00 X38.7485 Y8.5525
G01 Z-2.5000
G01 Z0
G00 Z2.0000
G00 X33.7485 Y8.4875
G01 Z-2.5000
G01 Z0
G00 Z2.0000
G00 X33.7485 Y13.6205
G01 Z-2.5000
G01 Z0
G00 Z2.0000
G00 X38.7485 Y13.5735
G01 Z-2.5000
G01 Z0
G00 Z2.0000
G00 X38.7485 Y25.5705
G01 Z-2.5000
G01 Z0
G00 Z2.0000
G00 X33.7485 Y25.4465
G01 Z-2.5000
G01 Z0
G00 Z2.0000
G00 X24.7405 Y25.5055
G01 Z-2.5000
G01 Z0
G00 Z2.0000
G00 X19.7575 Y25.4465
G01 Z-2.5000
G01 Z0
G00 Z2.0000
G00 X19.7575 Y13.6205
G01 Z-2.5000
G01 Z0
G00 Z2.0000
G00 X24.7405 Y13.4345
G01 Z-2.5000
G01 Z0
G00 Z2.0000
G00 X24.7405 Y8.4965
G01 Z-2.5000
G01 Z0
G00 Z2.0000
G00 X19.7575 Y8.5645
G01 Z-2.5000
G01 Z0
G00 Z2.0000
G00 X19.7575 Y-3.4445
G01 Z-2.5000
G01 Z0
G00 Z2.0000
G00 X24.7405 Y-3.5715
G01 Z-2.5000
G01 Z0
G00 Z2.0000
G00 X24.7405 Y-8.5215
G01 Z-2.5000
G01 Z0
G00 Z2.0000
G00 X19.7575 Y-8.4625
G01 Z-2.5000
G01 Z0
G00 Z2.0000
G00 X19.7575 Y-20.4775
G01 Z-2.5000
G01 Z0
G00 Z2.0000
G00 X24.7405 Y-20.4625
G01 Z-2.5000
G01 Z0
G00 Z2.0000
M05
G00 Z5.00
G00 X0.0 Y0.0


